rusokon/images/icon-beauty-3.svg

<svg xmlns="http://www.w3.org/2000/svg" width="52" height="52" viewBox="0 0 52 52"><defs><style>.cls-1{fill:none;stroke:#a2a2a2;stroke-miterlimit:10;}.cls-2{fill:#ff1a46;}</style></defs><title>icon-beauty-3</title><path class="cls-1" d="M.5.5h50v50h-50z"/><path class="cls-2" d="M35.8 27.6a7.72 7.72 0 0 0-5.7 2.5.71.71 0 0 0 1 1 6 6 0 0 1 4.6-2 6.2 6.2 0 0 1 0 12.4 6.37 6.37 0 0 1-6-4.3h2.8v-1.4h-4.8v4.8h1.4v-1.7a7.7 7.7 0 0 0 6.7 4 7.49 7.49 0 0 0 7.5-7.5 7.62 7.62 0 0 0-7.5-7.8zM36.5 20.8h-22v16.8h11.7v-10.3h10.3zm-1.4 1.4v3.7h-3.7v-3.7zm-5.2 0v3.7h-3.7v-3.7zm-5.1 10.2v3.7h-3.7v-3.7zm0-5.1v3.7h-3.7v-3.7zm0-5.1v3.7h-3.7v-3.7zm-5.1 10.2v3.7h-3.7v-3.7zm0-5.1v3.7h-3.7v-3.7zm0-5.1v3.7h-3.7v-3.7zM24.4 40.2h-12.5v-22h27.1v7.3a.7.7 0 1 0 1.4 0v-13.7a.68.68 0 0 0-.7-.7h-2.7v-1.6a.68.68 0 0 0-.7-.7h-4a.68.68 0 0 0-.7.7v1.6h-12.2v-1.6a.68.68 0 0 0-.7-.7h-4a.68.68 0 0 0-.7.7v1.6h-2.7a.68.68 0 0 0-.7.7v29.1a.68.68 0 0 0 .7.7h13.1a.68.68 0 0 0 .7-.7.75.75 0 0 0-.7-.7zm-9-26.8v-3.2h2.6v3.2zm17.6 0v-3.2h2.6v3.2zm-18.3 1.3h4a.68.68 0 0 0 .7-.7v-1.5h12.3v1.6a.68.68 0 0 0 .7.7h4a.68.68 0 0 0 .7-.7v-1.6h2v4.3h-27.2v-4.3h2v1.6a.87.87 0 0 0 .8.6z"/></svg>

<svg id="Layer_1" data-name="Layer 1" xmlns="http://www.w3.org/2000/svg" width="52px" height="52px" viewBox="0 0 52 52"><defs><style>.cls-1{fill:none;stroke:#a2a2a2;stroke-miterlimit:10;}.cls-2{fill:#ff1a46;}</style></defs><title>icon-beauty-3</title><rect class="cls-1" x="0.5" y="0.5" width="50" height="50"/><path class="cls-2" d="M35.8,27.6a7.72,7.72,0,0,0-5.7,2.5.71.71,0,0,0,1,1,6,6,0,0,1,4.6-2,6.2,6.2,0,0,1,0,12.4,6.37,6.37,0,0,1-6-4.3h2.8V35.8H27.7v4.8h1.4V38.9a7.7,7.7,0,0,0,6.7,4,7.49,7.49,0,0,0,7.5-7.5A7.62,7.62,0,0,0,35.8,27.6Z"/><path class="cls-2" d="M36.5,20.8h-22V37.6H26.2V27.3H36.5Zm-1.4,1.4v3.7H31.4V22.2Zm-5.2,0v3.7H26.2V22.2ZM24.8,32.4v3.7H21.1V32.4Zm0-5.1V31H21.1V27.3Zm0-5.1v3.7H21.1V22.2ZM19.7,32.4v3.7H16V32.4Zm0-5.1V31H16V27.3Zm0-5.1v3.7H16V22.2Z"/><path class="cls-2" d="M24.4,40.2H11.9v-22H39v7.3a.7.7,0,1,0,1.4,0V11.8a.68.68,0,0,0-.7-.7H37V9.5a.68.68,0,0,0-.7-.7h-4a.68.68,0,0,0-.7.7v1.6H19.4V9.5a.68.68,0,0,0-.7-.7h-4a.68.68,0,0,0-.7.7v1.6H11.3a.68.68,0,0,0-.7.7V40.9a.68.68,0,0,0,.7.7H24.4a.68.68,0,0,0,.7-.7A.75.75,0,0,0,24.4,40.2Zm-9-26.8V10.2H18v3.2Zm17.6,0V10.2h2.6v3.2ZM14.7,14.7h4a.68.68,0,0,0,.7-.7V12.5H31.7v1.6a.68.68,0,0,0,.7.7h4a.68.68,0,0,0,.7-.7V12.5h2v4.3H11.9V12.5h2v1.6A.87.87,0,0,0,14.7,14.7Z"/></svg>
